icons/beef-off.svg

<svg width="24" height="24" viewBox="0 0 24 24" fill="none" xmlns="http://www.w3.org/2000/svg">
<path d="M2 11.8326C2 18.9066 8.82927 17.471 12.2439 14.9081C15.6585 12.3452 19.0732 12.8578 20.5366 11.8326C21.7073 11.0125 22 10.124 22 9.78225M2 11.8326C2 10.9281 2.04681 10.119 2.12852 9.39735C2.57254 5.47565 6.26299 3.09964 10.2105 3.01417C13.1644 2.95021 22 2.93751 22 6.83128V9.78225M2 11.8326V16.9584C2 23.6221 8.82927 22.5969 12.2439 20.034C15.6585 17.471 19.0732 17.9836 20.5366 16.9584C21.7073 16.1383 22 15.2498 22 14.9081V9.78225" stroke="black" stroke-width="2" stroke-linecap="round" stroke-linejoin="round"/>
<path d="M2 2L22 22" stroke="black" stroke-width="2" stroke-linecap="round" stroke-linejoin="round"/>
</svg>

<svg xmlns="http://www.w3.org/2000/svg" width="24" height="24" viewBox="0 0 24 24" fill="none" stroke="currentColor" stroke-width="2" stroke-linecap="round" stroke-linejoin="round">
<path d="M2 11.833c0 7.074 6.83 5.638 10.244 3.075 3.415-2.563 6.83-2.05 8.293-3.075 1.17-.82 1.463-1.709 1.463-2.05m-20 2.05c0-.905.047-1.714.129-2.436.444-3.921 4.134-6.297 8.082-6.383C13.164 2.95 22 2.938 22 6.831v2.951m-20 2.05v5.126c0 6.664 6.83 5.639 10.244 3.076 3.415-2.563 6.83-2.05 8.293-3.076 1.17-.82 1.463-1.708 1.463-2.05V9.782M2 2l20 20"/>
</svg>
